X: 1
T: Fonab House
B: Gow Collection v.6 #24
O: arr. Elke Baker
R: jig, air
C: Niel Gow Jr.
S: printed page in Concord Slow Scottish Session collection
Z: 2015 John Chambers <jc:trillian.mit.edu> (plus a few modified chords)
M: 6/8
L: 1/8
K: D
A |\
"D"F/G/AA Afe | "D"dAB AFd | "D"AFD DAD | "A7"GEE E2G |\
"D"F/G/AA Afe | "D"dAB AFd | "D"Aaf "G"ged | "A7"c>Bc "D"d2 :|
a |\
"D"fda f>ed | "D"Adc "G7"d2=f | "C"e=cg e>dc | "C"G=cB c2a |\
"D"fda f>ed | "D"Adc def | "G"edc "D"dAB | "A"AFd "D"D2 ||
a |\
"D"fda f>ed | "D"Adc "G7"d2=f | "C"e=cg e>dc | "C"G=cB c2e |\
"D"dDE FGA | "G"Bcd "A7"efg | "D"afd "G"ged | "A7"c>Bc "D"d2 |]
